X:965
T:Dublin Porter
R:reel
D:Paul McGrattan: The Frost Is All Over
D:John McHugh & Barry Carroll: The Long Finger
D:De Danann: Half Set in Harlem
Z:id:hn-reel-466
M:C|
L:1/8
K:G
~B3A BcdB|cBAB cdec|d2dc dcAG|(3FED AD BDAF|
DBBA BcdB|cBAB cdef|g2fg ecAG|[1 FGAF G2GA:|[2 FGAF GABd||
|:g2gf gdBd|g2fg eA~A2|eA~A2 eA~A2|fgaf gfef|
g2gf gdBd|g2fg eA~A2|eA~A2 eA~A2|[1 fgaf gdef:|[2 fgaf gedc||
